X: 6204
T: Caribou, The
R: reel
M: 4/4
K: Edorian
e2-|:e2Be efed|Beee efed|BdBd ded=c|BGBd ded=c|
Beee efed|Bdef g2fg|afge fdec|1 dBAF E2e2-:|2 dBAF E2Bc||
|:BGEE EFGA|BEED EGFE|D2F2 A2F2|D2F2 D2Bc|
BGEE EFGA|BGBe e2Be|efed BcdB|1 AGFD E2Bc:|2 AGFD E2e2-||

